X:1
T:Title
%%score { ( 1 3 ) | ( 2 4 ) }
L:1/8
Q:1/4=104
M:4/4
K:Eb
V:1 treble nm="Grand Piano"
V:3 treble 
V:2 bass 
V:4 bass 
V:1
 G3 F E>D E>F | G6 G>G | [CEA]3 [CEA][K:bass] [A,CE]2 [F,=B,E]2 | [B,G]6 z2 | %4
w: J.~O.~Olsen * * * * *||||
 [=B,G]3 [B,F] [CE]>[DF] [EG]>E | D6 z2 | [=B,G]3 [B,F] [CE]>[EG] [Ec]>[=A,EF] |[M:9/8] B6- B z z | %8
w: ||||
[M:4/4] B3 G FE z2 | e3 c [Ac][GB] z2 | E3 F G2 B2 | c2 F2 [DF]4 | G3 A B2 E2 | e3 c [GB]2 G2 | %14
w: ||||||
 z G,2 [EF] [EG]2 [EB]2 | [DF]3 E E4 |] %16
w: ||
V:2
 [E,B,E]3 [A,B,D] [G,B,]>[F,A,B,] [E,G,B,]>[E,A,B,] | [E,B,E]6 [E,B,E]>[E,B,E] | %2
 A,,3 A,, A,,2 A,,2 | E,6 z2 | [G,,D,]3 [G,,G,] [C,G,]>[C,G,] [C,G,]>[E,G,C] | [G,=B,]6 z2 | %6
 [G,,D,]3 [G,,G,] [C,G,]>[C,G,] [F,=A,]>F, |[M:9/8] z G,A, G, F,2- F, z z | %8
[M:4/4] [E,G,E]3 [E,B,E] [A,B,D][G,B,] z2 | [A,CA]3 [A,EA][K:bass] [E,E][E,E] z2 | %10
 [E,G,B,]3 [E,A,B,] [E,B,E]2 [G,B,E]2 | [F,=A,E]2 [F,A,E]2 [B,,B,]4 | %12
 [G,B,E]3 [F,B,E] [G,B,E]2 [G,B,]2 | [A,CA]3 [A,EA][K:bass] [E,E]2 [E,B,E]2 | %14
 .C2 z [C,=A,] [B,,B,]2 [B,,G,]2 | [B,,A,]3 [E,G,] [E,G,]4 |] %16
V:3
 x8 | x8 | x4[K:bass] x4 | x8 | x8 | x8 | x8 |[M:9/8] [B,D]EF G A2- A z z |[M:4/4] x8 | x8 | x8 | %11
 x8 | x8 | x8 | E4 z4 | x8 |] %16
V:4
 x8 | x8 | x8 | x8 | x8 | x8 | x8 |[M:9/8] B,,6- B,, z z |[M:4/4] x8 | x4[K:bass] x4 | x8 | x8 | %12
 x8 | x4[K:bass] x4 | C,4 z4 | x8 |] %16

